src/xmb/retrosystem/RCA - Studio II-content.svg

<?xml version="1.0" encoding="UTF-8" standalone="no"?>
<svg
   xmlns:dc="http://purl.org/dc/elements/1.1/"
   xmlns:cc="http://creativecommons.org/ns#"
   xmlns:rdf="http://www.w3.org/1999/02/22-rdf-syntax-ns#"
   xmlns:svg="http://www.w3.org/2000/svg"
   xmlns="http://www.w3.org/2000/svg"
   xmlns:sodipodi="http://sodipodi.sourceforge.net/DTD/sodipodi-0.dtd"
   xmlns:inkscape="http://www.inkscape.org/namespaces/inkscape"
   viewBox="0 0 341.33334 341.33334"
   height="256"
   width="256"
   xml:space="preserve"
   id="svg2"
   version="1.1"
   sodipodi:docname="RCA - Studio II-content.svg"
   inkscape:version="0.92.2 (5c3e80d, 2017-08-06)"
   inkscape:export-filename="C:\Users\Alfre\AppData\Roaming\RetroArch\assets\xmb\custom\png\RCA - Studio II-content.png"
   inkscape:export-xdpi="96"
   inkscape:export-ydpi="96"><sodipodi:namedview
     pagecolor="#ffffff"
     bordercolor="#666666"
     borderopacity="1"
     objecttolerance="10"
     gridtolerance="10"
     guidetolerance="10"
     inkscape:pageopacity="0"
     inkscape:pageshadow="2"
     inkscape:window-width="1920"
     inkscape:window-height="1001"
     id="namedview76"
     showgrid="true"
     inkscape:pagecheckerboard="true"
     inkscape:zoom="2.7656249"
     inkscape:cx="83.205498"
     inkscape:cy="239.4955"
     inkscape:window-x="-9"
     inkscape:window-y="-9"
     inkscape:window-maximized="1"
     inkscape:current-layer="svg2"><inkscape:grid
       type="xygrid"
       id="grid888" /></sodipodi:namedview><metadata
     id="metadata8"><rdf:RDF><cc:Work
         rdf:about=""><dc:format>image/svg+xml</dc:format><dc:type
           rdf:resource="http://purl.org/dc/dcmitype/StillImage" /><dc:title /></cc:Work></rdf:RDF></metadata><defs
     id="defs6"><clipPath
       id="clipPath18"
       clipPathUnits="userSpaceOnUse"><path
         id="path16"
         d="M 0,256 H 256 V 0 H 0 Z" /></clipPath><clipPath
       id="clipPath26"
       clipPathUnits="userSpaceOnUse"><path
         id="path24"
         d="M 3.4726,224 H 252.527 V 32 H 3.4726 Z" /></clipPath><clipPath
       id="clipPath84"
       clipPathUnits="userSpaceOnUse"><path
         id="path82"
         d="M 0,256 H 256 V 0 H 0 Z" /></clipPath></defs><path
     id="path38"
     style="fill:#bf9a57;fill-opacity:1;fill-rule:nonzero;stroke:none;stroke-width:1.33333325"
     d="M 322.66666,85.333336 H 18.666668 l -0.222667,2.666667 H 322.88933 Z"
     inkscape:connector-curvature="0" /><path
     id="path42"
     style="fill:#bf9a57;fill-opacity:1;fill-rule:nonzero;stroke:none;stroke-width:1.33333325"
     d="M 322.11066,78.66667 H 19.221334 l -0.221333,2.666667 H 322.33333 Z"
     inkscape:connector-curvature="0" /><path
     id="path46"
     style="fill:#bf9a57;fill-opacity:1;fill-rule:nonzero;stroke:none;stroke-width:1.33333325"
     d="M 323.22266,92.000003 H 18.112001 L 17.889334,94.66667 H 323.44399 Z"
     inkscape:connector-curvature="0" /><path
     id="path50"
     style="fill:#bf9a57;fill-opacity:1;fill-rule:nonzero;stroke:none;stroke-width:1.33333325"
     d="M 321.55599,72.000003 H 19.778664 L 19.555998,74.66667 H 321.77732 Z"
     inkscape:connector-curvature="0" /><path
     id="path54"
     style="fill:#bf9a57;fill-opacity:1;fill-rule:nonzero;stroke:none;stroke-width:1.33333325"
     d="M 320.99999,65.333337 H 20.333331 l -0.222667,2.666667 H 321.22266 Z"
     inkscape:connector-curvature="0" /><path
     id="path58"
     style="fill:#bf9a57;fill-opacity:1;fill-rule:nonzero;stroke:none;stroke-width:1.33333325"
     d="M 323.77733,98.666669 H 17.554671 l -0.221333,2.666671 H 324 Z"
     inkscape:connector-curvature="0" /><path
     inkscape:connector-curvature="0"
     d="m 16,121.33334 h 309.33333 v -2.66667 H 16 Z"
     style="fill:#bf9a57;fill-opacity:1;fill-rule:nonzero;stroke:none;stroke-width:1.33333325"
     id="path60" /><path
     id="path64"
     style="fill:#bf9a57;fill-opacity:1;fill-rule:nonzero;stroke:none;stroke-width:1.33333325"
     d="M 324.88933,112 H 16.445338 l -0.222667,2.66667 H 325.11066 Z"
     inkscape:connector-curvature="0" /><path
     id="path68"
     style="fill:#bf9a57;fill-opacity:1;fill-rule:nonzero;stroke:none;stroke-width:1.33333325"
     d="M 324.33333,105.33334 H 17.000004 l -0.222666,2.66667 H 324.556 Z"
     inkscape:connector-curvature="0" /><path
     inkscape:connector-curvature="0"
     d="M 287.99999,288 H 53.333332 V 250.66667 H 287.99999 Z"
     style="fill:#999999;fill-opacity:1;fill-rule:nonzero;stroke:#999999;stroke-width:1.33333325;stroke-opacity:1"
     id="path70" /><path
     id="path74"
     style="fill:#d9af63;fill-opacity:1;fill-rule:nonzero;stroke:none;stroke-width:1.33333325"
     d="M 314.66666,53.333337 H 26.666667 L 21.333334,122.66667 V 256 H 319.99999 V 122.66667 Z"
     inkscape:connector-curvature="0" /><path
     inkscape:connector-curvature="0"
     d="M 319.99999,256 H 21.333333 V 186.66667 H 319.99999 Z"
     style="fill:#bf9a57;fill-opacity:1;fill-rule:nonzero;stroke:none;stroke-width:1.33333325"
     id="path76" /><path
     id="path88"
     style="fill:#e77f22;fill-opacity:1;fill-rule:nonzero;stroke:none;stroke-width:1.33333325"
     d="M 298.66666,181.33333 H 42.666666 c -2.945333,0 -5.333333,-2.388 -5.333333,-5.33333 V 69.333333 C 37.333333,66.388 39.721333,64 42.666666,64 H 298.66666 c 2.94533,0 5.33333,2.388 5.33333,5.333333 V 176 c 0,2.94533 -2.388,5.33333 -5.33333,5.33333"
     inkscape:connector-curvature="0" /><path
     inkscape:connector-curvature="0"
     d="m 42.666666,250.66667 h -16 V 224 h 16 z"
     style="fill:#a3834a;fill-opacity:1;fill-rule:nonzero;stroke:none;stroke-width:1.33333325"
     id="path90" /><path
     inkscape:connector-curvature="0"
     d="m 314.66666,250.66667 h -16 V 224 h 16 z"
     style="fill:#a3834a;fill-opacity:1;fill-rule:nonzero;stroke:none;stroke-width:1.33333325"
     id="path92" /><path
     id="path96"
     style="fill:#a3834a;fill-opacity:1;fill-rule:nonzero;stroke:none;stroke-width:1.33333325"
     d="m 50.666665,229.33333 c -4.417333,0 -8,3.58267 -8,8 0,4.41733 3.582667,8 8,8 4.417333,0 8,-3.58267 8,-8 0,-4.41733 -3.582667,-8 -8,-8"
     inkscape:connector-curvature="0" /><path
     id="path100"
     style="fill:#262626;fill-opacity:1;fill-rule:nonzero;stroke:none;stroke-width:1.33333325"
     d="m 50.666665,232 c 2.941333,0 5.333333,2.392 5.333333,5.33333 0,2.94134 -2.392,5.33334 -5.333333,5.33334 -2.941333,0 -5.333333,-2.392 -5.333333,-5.33334 0,-2.94133 2.392,-5.33333 5.333333,-5.33333"
     inkscape:connector-curvature="0" /><path
     id="path104"
     style="fill:#a3834a;fill-opacity:1;fill-rule:nonzero;stroke:none;stroke-width:1.33333325"
     d="m 290.66666,229.33333 c -4.41733,0 -8,3.58267 -8,8 0,4.41733 3.58267,8 8,8 4.41733,0 8,-3.58267 8,-8 0,-4.41733 -3.58267,-8 -8,-8"
     inkscape:connector-curvature="0" /><path
     id="path108"
     style="fill:#262626;fill-opacity:1;fill-rule:nonzero;stroke:none;stroke-width:1.33333325"
     d="m 290.66666,232 c 2.94133,0 5.33333,2.392 5.33333,5.33333 0,2.94134 -2.392,5.33334 -5.33333,5.33334 -2.94133,0 -5.33333,-2.392 -5.33333,-5.33334 0,-2.94133 2.392,-5.33333 5.33333,-5.33333"
     inkscape:connector-curvature="0" /><path
     inkscape:connector-curvature="0"
     d="m 58.667004,288.4923 h 10.66667 v -32.21979 h -10.66667 z"
     style="fill:#cccccc;fill-opacity:1;fill-rule:nonzero;stroke:none;stroke-width:1.23865879"
     id="path42-8" /><path
     inkscape:connector-curvature="0"
     d="M 74.667004,288.4923 H 85.333673 V 256.27251 H 74.667004 Z"
     style="fill:#cccccc;fill-opacity:1;fill-rule:nonzero;stroke:none;stroke-width:1.23865879"
     id="path44" /><path
     inkscape:connector-curvature="0"
     d="M 90.667006,288.4923 H 101.33367 V 256.27251 H 90.667006 Z"
     style="fill:#cccccc;fill-opacity:1;fill-rule:nonzero;stroke:none;stroke-width:1.23865879"
     id="path46-3" /><path
     inkscape:connector-curvature="0"
     d="m 106.667,288.4923 h 10.66667 V 256.27251 H 106.667 Z"
     style="fill:#cccccc;fill-opacity:1;fill-rule:nonzero;stroke:none;stroke-width:1.23865879"
     id="path48" /><path
     inkscape:connector-curvature="0"
     d="m 122.667,288.4923 h 10.66667 V 256.27251 H 122.667 Z"
     style="fill:#cccccc;fill-opacity:1;fill-rule:nonzero;stroke:none;stroke-width:1.23865879"
     id="path50-5" /><path
     inkscape:connector-curvature="0"
     d="m 138.667,288.4923 h 10.66667 V 256.27251 H 138.667 Z"
     style="fill:#cccccc;fill-opacity:1;fill-rule:nonzero;stroke:none;stroke-width:1.23865879"
     id="path52" /><path
     inkscape:connector-curvature="0"
     d="m 154.667,288.4923 h 10.66667 V 256.27251 H 154.667 Z"
     style="fill:#cccccc;fill-opacity:1;fill-rule:nonzero;stroke:none;stroke-width:1.23865879"
     id="path54-8" /><path
     inkscape:connector-curvature="0"
     d="m 170.667,288.4923 h 10.66667 V 256.27251 H 170.667 Z"
     style="fill:#cccccc;fill-opacity:1;fill-rule:nonzero;stroke:none;stroke-width:1.23865879"
     id="path56" /><path
     inkscape:connector-curvature="0"
     d="m 186.667,288.4923 h 10.66667 V 256.27251 H 186.667 Z"
     style="fill:#cccccc;fill-opacity:1;fill-rule:nonzero;stroke:none;stroke-width:1.23865879"
     id="path58-6" /><path
     inkscape:connector-curvature="0"
     d="m 202.667,288.4923 h 10.66667 V 256.27251 H 202.667 Z"
     style="fill:#cccccc;fill-opacity:1;fill-rule:nonzero;stroke:none;stroke-width:1.23865879"
     id="path60-4" /><path
     inkscape:connector-curvature="0"
     d="m 218.667,288.4923 h 10.66667 V 256.27251 H 218.667 Z"
     style="fill:#cccccc;fill-opacity:1;fill-rule:nonzero;stroke:none;stroke-width:1.23865879"
     id="path62" /><path
     inkscape:connector-curvature="0"
     d="m 234.667,288.4923 h 10.66667 V 256.27251 H 234.667 Z"
     style="fill:#cccccc;fill-opacity:1;fill-rule:nonzero;stroke:none;stroke-width:1.23865879"
     id="path64-1" /><path
     inkscape:connector-curvature="0"
     d="m 250.667,288.4923 h 10.66667 V 256.27251 H 250.667 Z"
     style="fill:#cccccc;fill-opacity:1;fill-rule:nonzero;stroke:none;stroke-width:1.23865879"
     id="path66" /><path
     inkscape:connector-curvature="0"
     d="m 266.667,288.4923 h 10.66667 V 256.27251 H 266.667 Z"
     style="fill:#cccccc;fill-opacity:1;fill-rule:nonzero;stroke:none;stroke-width:1.23865879"
     id="path68-2" /><g
     id="g886"
     transform="matrix(0.42621911,0,0,0.42621911,253.52747,-31.177478)"><path
       id="path38-0"
       transform="scale(1.3333334)"
       d="m 23.052734,208.67188 v 0.004 c -7.352999,0.063 -20.8589528,0.84644 -35.126953,5.02344 -17.715999,5.186 -31.57789,13.9956 -41.21289,26.18359 l -4.595703,0.85742 c -8.032001,1.5 -15.277169,6.63652 -20.951172,14.85352 -4.143001,5.999 -6.031375,11.5775 -6.109375,11.8125 l -1.548829,4.64258 -0.517578,1.54883 1.613282,-0.24219 4.841796,-0.72852 c 0.03998,-0.006 4.106368,-0.60156 8.359376,-0.60156 1.815999,0 3.394406,0.10736 4.691406,0.31836 -1.092,5.935 -1.64453,12.30599 -1.644532,18.95898 v 1.2461 0.41601 l 0.294922,0.29297 0.884766,0.88086 2.576172,2.56445 c -9.784003,0.81901 -14.440295,17.78522 -15.654297,23.07422 l -1.060547,4.61524 -0.351562,1.53906 1.541015,-0.33789 4.625,-1.01367 c 1.852004,-0.40601 6.675516,-1.58085 11.478516,-3.71485 6.343999,-2.818 10.142063,-6.1942 11.289062,-10.0332 0.194001,-0.649 0.314423,-1.30385 0.357422,-1.96484 l 2.652344,2.64062 0.878906,0.87305 0.292969,0.29102 h 0.412109 1.238282 c 6.760999,0 13.265516,-0.7028 19.353515,-2.0918 0.754,5.624 -0.717422,13.24031 -0.732422,13.32031 l -1.191406,6.04688 -0.396484,2.01757 1.832031,-0.93359 5.494141,-2.79492 c 0.876999,-0.446 21.5290309,-11.14925 26.0820309,-30.65625 l 0.8652343,-3.70899 c 8.7389998,-8.07999 15.8440938,-18.69836 21.1210938,-31.56836 10.002,-24.39299 10.117189,-48.39624 10.117187,-49.40625 v -2.74804 -0.91602 l -0.912109,-0.0801 -2.736328,-0.24218 c -0.102,-0.009 -2.359344,-0.20337 -6.152344,-0.23438 v -0.004 h -0.998047 -0.002 z m 0.802735,5.23632 c 3.955078,0.0165 6.298828,0.22266 6.298828,0.22266 0,0 7.8e-5,95.77539 -78.544922,95.77539 l -17.455078,-17.36914 c 0,-73.278 68.343749,-78.71801 89.701172,-78.62891 z m -29.7011721,23.99805 c -4.4159999,0 -7.9999999,3.584 -7.9999999,8 0,4.416 3.584,8 7.9999999,8 4.416,0 8,-3.584 8,-8 0,-4.416 -3.584,-8 -8,-8 z m -59.3007809,64.00391 c 1.486788,0.0658 3.088125,0.84312 4.796875,2.58984 10.934999,11.178 -17.496094,17.40625 -17.496094,17.40625 0,0 4.670564,-20.35145 12.699219,-19.99609 z"
       style="fill:#191919;fill-opacity:1;fill-rule:nonzero;stroke:none;stroke-width:0.99999994"
       inkscape:connector-curvature="0" /></g><text
     xml:space="preserve"
     style="font-style:normal;font-variant:normal;font-weight:bold;font-stretch:normal;font-size:18.3387928px;line-height:1.25;font-family:sans-serif;-inkscape-font-specification:'sans-serif Bold';letter-spacing:0px;word-spacing:0px;fill:#000000;fill-opacity:1;stroke:none;stroke-width:0.45846981"
     x="49.500412"
     y="105.27431"
     id="text892"
     transform="scale(1.0416308,0.96003305)"><tspan
       sodipodi:role="line"
       id="tspan890"
       x="49.500412"
       y="105.27431"
       style="font-style:normal;font-variant:normal;font-weight:bold;font-stretch:normal;font-family:sans-serif;-inkscape-font-specification:'sans-serif Bold';stroke-width:0.45846981">LIBRETRO</tspan><tspan
       sodipodi:role="line"
       x="49.500412"
       y="128.19781"
       style="font-style:normal;font-variant:normal;font-weight:bold;font-stretch:normal;font-family:sans-serif;-inkscape-font-specification:'sans-serif Bold';stroke-width:0.45846981"
       id="tspan894" /></text>
<text
     xml:space="preserve"
     style="font-style:normal;font-weight:normal;font-size:17.13872719px;line-height:1.25;font-family:sans-serif;letter-spacing:0px;word-spacing:0px;fill:#ffffff;fill-opacity:1;stroke:none;stroke-width:0.42846817"
     x="52.211956"
     y="126.40724"
     id="text898"><tspan
       sodipodi:role="line"
       id="tspan896"
       x="52.211956"
       y="126.40724"
       style="fill:#ffffff;stroke-width:0.42846817">Studio II</tspan></text>
<text
     xml:space="preserve"
     style="font-style:normal;font-variant:normal;font-weight:bold;font-stretch:normal;font-size:10.26510334px;line-height:1.25;font-family:sans-serif;-inkscape-font-specification:'sans-serif Bold';letter-spacing:0px;word-spacing:0px;fill:#000000;fill-opacity:1;stroke:none;stroke-width:0.25662759"
     x="52.381004"
     y="167.84462"
     id="text860"><tspan
       sodipodi:role="line"
       id="tspan858"
       x="52.381004"
       y="167.84462"
       style="font-style:normal;font-variant:normal;font-weight:bold;font-stretch:normal;font-family:sans-serif;-inkscape-font-specification:'sans-serif Bold';stroke-width:0.25662759">PROGRAM CARTRIDGE</tspan></text>
</svg>

<svg xmlns="http://www.w3.org/2000/svg" xml:space="preserve" width="256" height="256" viewBox="0 0 341.333 341.333"><path d="M322.667 85.333h-304L18.444 88h304.445Zm-.557-6.666H19.222L19 81.333h303.333ZM323.223 92H18.112l-.223 2.667h305.555Zm-1.667-20H19.779l-.223 2.667h302.221ZM321 65.333H20.333L20.111 68h301.112Zm2.777 33.334H17.555l-.222 2.666H324ZM16 121.333h309.333v-2.666H16ZM324.89 112H16.444l-.222 2.667H325.11Zm-.557-6.667H17L16.777 108h307.779Z" style="fill:#bf9a57;fill-opacity:1;fill-rule:nonzero;stroke:none;stroke-width:1.33333325"/><path d="M288 288H53.333v-37.333H288Z" style="fill:#999;fill-opacity:1;fill-rule:nonzero;stroke:#999;stroke-width:1.33333325;stroke-opacity:1"/><path d="M314.667 53.333h-288l-5.334 69.334V256H320V122.667Z" style="fill:#d9af63;fill-opacity:1;fill-rule:nonzero;stroke:none;stroke-width:1.33333325"/><path d="M320 256H21.333v-69.333H320Z" style="fill:#bf9a57;fill-opacity:1;fill-rule:nonzero;stroke:none;stroke-width:1.33333325"/><path d="M298.667 181.333h-256A5.334 5.334 0 0 1 37.333 176V69.333A5.334 5.334 0 0 1 42.667 64h256A5.334 5.334 0 0 1 304 69.333V176a5.334 5.334 0 0 1-5.333 5.333" style="fill:#e77f22;fill-opacity:1;fill-rule:nonzero;stroke:none;stroke-width:1.33333325"/><path d="M42.667 250.667h-16V224h16zm272 0h-16V224h16z" style="fill:#a3834a;fill-opacity:1;fill-rule:nonzero;stroke:none;stroke-width:1.33333325"/><path d="M50.667 229.333a8.001 8.001 0 0 0 0 16 8.001 8.001 0 0 0 0-16" style="fill:#a3834a;fill-opacity:1;fill-rule:nonzero;stroke:none;stroke-width:1.33333325"/><path d="M50.667 232A5.34 5.34 0 0 1 56 237.333a5.34 5.34 0 0 1-5.333 5.334 5.34 5.34 0 0 1-5.334-5.334A5.34 5.34 0 0 1 50.667 232" style="fill:#262626;fill-opacity:1;fill-rule:nonzero;stroke:none;stroke-width:1.33333325"/><path d="M290.667 229.333a8.001 8.001 0 0 0 0 16 8.001 8.001 0 0 0 0-16" style="fill:#a3834a;fill-opacity:1;fill-rule:nonzero;stroke:none;stroke-width:1.33333325"/><path d="M290.667 232a5.34 5.34 0 0 1 5.333 5.333 5.34 5.34 0 0 1-5.333 5.334 5.34 5.34 0 0 1-5.334-5.334 5.34 5.34 0 0 1 5.334-5.333" style="fill:#262626;fill-opacity:1;fill-rule:nonzero;stroke:none;stroke-width:1.33333325"/><path d="M58.667 288.492h10.667v-32.22H58.667zm16 0h10.667v-32.22H74.667Zm16 0h10.667v-32.22H90.667Zm16 0h10.667v-32.22h-10.667Zm16 0h10.667v-32.22h-10.667Zm16 0h10.667v-32.22h-10.667Zm16 0h10.667v-32.22h-10.667Zm16 0h10.667v-32.22h-10.667Zm16 0h10.667v-32.22h-10.667Zm16 0h10.667v-32.22h-10.667Zm16 0h10.667v-32.22h-10.667Zm16 0h10.667v-32.22h-10.667Zm16 0h10.667v-32.22h-10.667Zm16 0h10.667v-32.22h-10.667Z" style="fill:#ccc;fill-opacity:1;fill-rule:nonzero;stroke:none;stroke-width:1.23865879"/><path d="M23.053 208.672v.004c-7.353.063-20.86.846-35.127 5.023-17.716 5.186-31.578 13.996-41.213 26.184l-4.596.857c-8.032 1.5-15.277 6.637-20.951 14.854-4.143 5.999-6.031 11.577-6.11 11.812l-1.548 4.643-.518 1.549 1.614-.242 4.841-.729c.04-.006 4.107-.602 8.36-.602 1.816 0 3.394.108 4.691.319-1.092 5.935-1.644 12.306-1.644 18.959v1.662l.294.293.885.88 2.576 2.565c-9.784.82-14.44 17.785-15.654 23.074l-1.06 4.616-.352 1.539 1.541-.338 4.625-1.014c1.852-.406 6.676-1.58 11.479-3.715 6.344-2.818 10.142-6.194 11.289-10.033a9 9 0 0 0 .357-1.965l2.652 2.64.88.874.292.291h1.651c6.76 0 13.265-.703 19.353-2.092.754 5.624-.717 13.24-.732 13.32l-1.192 6.047-.396 2.018 1.832-.934 5.494-2.795c.877-.446 21.529-11.149 26.082-30.656l.865-3.709c8.74-8.08 15.844-18.698 21.121-31.568 10.002-24.393 10.118-48.396 10.118-49.406v-3.664l-.913-.08-2.736-.243c-.102-.009-2.36-.203-6.152-.234v-.004h-1zm.802 5.236c3.956.017 6.3.223 6.3.223s0 95.775-78.546 95.775l-17.455-17.369c0-73.278 68.344-78.718 89.701-78.629m-29.7 23.998c-4.417 0-8 3.584-8 8s3.583 8 8 8c4.415 0 8-3.584 8-8s-3.585-8-8-8m-59.301 64.004c1.486.066 3.088.843 4.796 2.59 10.935 11.178-17.496 17.406-17.496 17.406s4.67-20.351 12.7-19.996" style="fill:#191919;fill-opacity:1;fill-rule:nonzero;stroke:none;stroke-width:.99999994" transform="translate(253.527 -31.177)scale(.56829)"/><text xml:space="preserve" x="49.5" y="105.274" style="font-style:normal;font-variant:normal;font-weight:700;font-stretch:normal;font-size:18.3387928px;line-height:1.25;font-family:sans-serif;-inkscape-font-specification:&quot;sans-serif Bold&quot;;letter-spacing:0;word-spacing:0;fill:#000;fill-opacity:1;stroke:none;stroke-width:.45846981" transform="scale(1.04163 .96003)"><tspan x="49.5" y="105.274" style="font-style:normal;font-variant:normal;font-weight:700;font-stretch:normal;font-family:sans-serif;-inkscape-font-specification:&quot;sans-serif Bold&quot;;stroke-width:.45846981">LIBRETRO</tspan></text><text xml:space="preserve" x="52.212" y="126.407" style="font-style:normal;font-weight:400;font-size:17.13872719px;line-height:1.25;font-family:sans-serif;letter-spacing:0;word-spacing:0;fill:#fff;fill-opacity:1;stroke:none;stroke-width:.42846817"><tspan x="52.212" y="126.407" style="fill:#fff;stroke-width:.42846817">Studio II</tspan></text><text xml:space="preserve" x="52.381" y="167.845" style="font-style:normal;font-variant:normal;font-weight:700;font-stretch:normal;font-size:10.26510334px;line-height:1.25;font-family:sans-serif;-inkscape-font-specification:&quot;sans-serif Bold&quot;;letter-spacing:0;word-spacing:0;fill:#000;fill-opacity:1;stroke:none;stroke-width:.25662759"><tspan x="52.381" y="167.845" style="font-style:normal;font-variant:normal;font-weight:700;font-stretch:normal;font-family:sans-serif;-inkscape-font-specification:&quot;sans-serif Bold&quot;;stroke-width:.25662759">PROGRAM CARTRIDGE</tspan></text></svg>
